images/facebook.svg

<?xml version="1.0" encoding="utf-8"?>
<!-- Generator: Adobe Illustrator 20.1.0, SVG Export Plug-In . SVG Version: 6.00 Build 0)  -->
<svg version="1.1" xmlns="http://www.w3.org/2000/svg" xmlns:xlink="http://www.w3.org/1999/xlink" x="0px" y="0px"
	 viewBox="0 0 50 50" style="enable-background:new 0 0 50 50;" xml:space="preserve">
<style type="text/css">
	.st0{display:none;}
	.st1{display:inline;fill:#FFFFFF;}
	.st2{fill:#ABABAB;}
	.st3{display:inline;fill:#3C5A99;}
</style>
<g id="XMLID_3_" class="st0">
	<path class="st1" d="M47.2,0H2.8C1.2,0,0,1.2,0,2.8v44.5C0,48.8,1.2,50,2.8,50h23.9V30.6h-6.5v-7.5h6.5v-5.6c0-6.5,3.9-10,9.7-10
		c2.8,0,5.1,0.2,5.8,0.3v6.7l-4,0c-3.1,0-3.7,1.5-3.7,3.7v4.8H42l-1,7.5h-6.5V50h12.7c1.5,0,2.8-1.2,2.8-2.8V2.8
		C50,1.2,48.8,0,47.2,0z"/>
</g>
<g id="XMLID_1_">
	<path class="st2" d="M47.2,0H2.8C1.2,0,0,1.2,0,2.8v44.5C0,48.8,1.2,50,2.8,50h23.9V30.6h-6.5v-7.5h6.5v-5.6c0-6.5,3.9-10,9.7-10
		c2.8,0,5.1,0.2,5.8,0.3v6.7l-4,0c-3.1,0-3.7,1.5-3.7,3.7v4.8H42l-1,7.5h-6.5V50h12.7c1.5,0,2.8-1.2,2.8-2.8V2.8
		C50,1.2,48.8,0,47.2,0z"/>
</g>
<g id="XMLID_2_" class="st0">
	<path class="st3" d="M47.2,0H2.8C1.2,0,0,1.2,0,2.8v44.5C0,48.8,1.2,50,2.8,50h23.9V30.6h-6.5v-7.5h6.5v-5.6c0-6.5,3.9-10,9.7-10
		c2.8,0,5.1,0.2,5.8,0.3v6.7l-4,0c-3.1,0-3.7,1.5-3.7,3.7v4.8H42l-1,7.5h-6.5V50h12.7c1.5,0,2.8-1.2,2.8-2.8V2.8
		C50,1.2,48.8,0,47.2,0z"/>
</g>
</svg>

<svg xmlns="http://www.w3.org/2000/svg" width="50" height="50" viewBox="0 0 50 50">
  <path fill="#ABABAB" d="M47.2,0 L2.8,0 C1.2,0 0,1.2 0,2.8 L0,47.3 C0,48.8 1.2,50 2.8,50 L26.7,50 L26.7,30.6 L20.2,30.6 L20.2,23.1 L26.7,23.1 L26.7,17.5 C26.7,11 30.6,7.5 36.4,7.5 C39.2,7.5 41.5,7.7 42.2,7.8 L42.2,14.5 L38.2,14.5 C35.1,14.5 34.5,16 34.5,18.2 L34.5,23 L42,23 L41,30.5 L34.5,30.5 L34.5,50 L47.2,50 C48.7,50 50,48.8 50,47.2 L50,2.8 C50,1.2 48.8,0 47.2,0 Z"/>
</svg>
